!!!OTL: 13a. Die Kronschlange.
!!!ODT: 1840
!!!ARE: Europa, Mitteleuropa, Deutschland, Rheinland ?
!!!SCT: E0013
!!!TXL:@@DE
!!!YEM: Copyright 1995, estate of Helmut Schaffrath.
**kern	**text
*ICvox	*
*M2/4	*
*k[f#]	*
*G:	*
!LO:TX:a:t=Einer.	!
!LO:TX:a:t=Etwas Schnell.	!
!LO:TX:a:t=Melodie 1840.	!
{8d	Der
=1	=1
8g	Jä-
8g	-ger
8g	längs
8g	am
=2	=2
8g	Wei-
16f#L	-her
16eJ	.
4d}	gieng,
=3	=3
!LO:TX:a:t=Alle.	!
{4g	[Lauf,
8dd	Jä-
8dd	-ger
=4	=4
4b	lauf!]
8r}	.
!LO:TX:a:t=Einer.	!
{8b	die
=5	=5
8a	Däm-
8a	-me-
8dd	-rung
8a	den
=6	=6
8g	Wald
16f#L	um-
16eJ	.
4d}	-fing.
=7	=7
!LO:TX:a:t=Alle.	!
{8g	Lauf,
16g	Jä-
16g	-ger
8g	lauf,
16g	Jä-
16g	-ger
=8	=8
8g	lauf,
8g	lauf,
8g}	lauf!
{8b/	Mein
=9	=9
16a	lie-
16g	-ber
16f#	Jä-
16g	-ger,
16a	gu-
16g	-ter
16f#	Jä-
16e	-ger
=10	=10
8d	lauf,
8d	lauf,
8d}	lauf!
{8cc	Mein
=11	=11
8b	lie-
8b	-ber
8a	Jä-
8a	-ger
=12	=12
4dd}	lauf,
{8eeL	mein
8ccJ	.
=13	=13
8b	lie-
8b	-ber
8a	Jä-
8a	-ger
=14	=14
4g	lauf!
8r}	.
==	==
!!!AGN: Sage, Maerchen -, Zauber - Lied, Ballade ?
!!!ONB: ESAC (Essen Associative Code) Database: ERK1
!!!AMT: simple duple
!!!AIN: vox
!!!EED: Helmut Schaffrath
!!!EEV: 1.0
!!!GTL: Nachtklaenge der Goettersage (Zaubermaeren)
!!!URL-scan: https://rosdok.uni-rostock.de/mcrviewer/recordIdentifier/rosdok_ppn745146120/iview2/phys_0099.iview2?x=-4.404412318552431&y=132.40917615883518&scale=0.645690413860662&rotation=0&layout=singlePageLayout&logicalDiv=log_0009
!!!ENC: Anna Maria Matuszewska
!!!EEV: 2024/22/11
*-	*-
